src/activities/mosaic/resource/digital_dice0.svg

<?xml version="1.0" encoding="UTF-8" standalone="no"?>
<!-- Created with Inkscape (http://www.inkscape.org/) -->

<svg
   xmlns:dc="http://purl.org/dc/elements/1.1/"
   xmlns:cc="http://creativecommons.org/ns#"
   xmlns:rdf="http://www.w3.org/1999/02/22-rdf-syntax-ns#"
   xmlns:svg="http://www.w3.org/2000/svg"
   xmlns="http://www.w3.org/2000/svg"
   xmlns:sodipodi="http://sodipodi.sourceforge.net/DTD/sodipodi-0.dtd"
   xmlns:inkscape="http://www.inkscape.org/namespaces/inkscape"
   width="32"
   height="32"
   viewBox="0 0 8.4666665 8.4666669"
   version="1.1"
   id="svg839"
   inkscape:version="0.92.4 (5da689c313, 2019-01-14)"
   sodipodi:docname="digital_dice0.svg">
  <defs
     id="defs833" />
  <sodipodi:namedview
     id="base"
     pagecolor="#ffffff"
     bordercolor="#666666"
     borderopacity="1.0"
     inkscape:pageopacity="0.0"
     inkscape:pageshadow="2"
     inkscape:zoom="15.839192"
     inkscape:cx="11.550286"
     inkscape:cy="14.3387"
     inkscape:document-units="px"
     inkscape:current-layer="layer1"
     showgrid="true"
     units="px"
     inkscape:window-width="1884"
     inkscape:window-height="1051"
     inkscape:window-x="0"
     inkscape:window-y="0"
     inkscape:window-maximized="1">
    <inkscape:grid
       type="xygrid"
       id="grid1384"
       empspacing="4" />
  </sodipodi:namedview>
  <metadata
     id="metadata836">
    <rdf:RDF>
      <cc:Work
         rdf:about="">
        <dc:format>image/svg+xml</dc:format>
        <dc:type
           rdf:resource="http://purl.org/dc/dcmitype/StillImage" />
        <dc:title></dc:title>
        <dc:date>2020</dc:date>
        <dc:creator>
          <cc:Agent>
            <dc:title>Timothée Giet</dc:title>
          </cc:Agent>
        </dc:creator>
        <cc:license
           rdf:resource="http://creativecommons.org/licenses/by-sa/4.0/" />
      </cc:Work>
      <cc:License
         rdf:about="http://creativecommons.org/licenses/by-sa/4.0/">
        <cc:permits
           rdf:resource="http://creativecommons.org/ns#Reproduction" />
        <cc:permits
           rdf:resource="http://creativecommons.org/ns#Distribution" />
        <cc:requires
           rdf:resource="http://creativecommons.org/ns#Notice" />
        <cc:requires
           rdf:resource="http://creativecommons.org/ns#Attribution" />
        <cc:permits
           rdf:resource="http://creativecommons.org/ns#DerivativeWorks" />
        <cc:requires
           rdf:resource="http://creativecommons.org/ns#ShareAlike" />
      </cc:License>
    </rdf:RDF>
  </metadata>
  <g
     inkscape:label="Calque 1"
     inkscape:groupmode="layer"
     id="layer1"
     transform="translate(0,-288.53332)">
    <rect
       style="fill:#a2a2a2;fill-opacity:1;stroke-width:0.26458332"
       id="rect1386"
       width="8.4666662"
       height="8.4666662"
       x="0"
       y="288.53333"
       ry="1.0583282" />
    <rect
       style="fill:#eae9e9;fill-opacity:1;stroke-width:0.24804686"
       id="rect1386-3"
       width="7.9374995"
       height="7.9374995"
       x="0.26458335"
       y="288.79791"
       ry="0.79374075" />
    <path
       style="fill:#c4c4c4;fill-opacity:1;stroke-width:0.99999994"
       d="m 16.5,3.0175781 v 8.0078129 a 4.9999997,4.9999997 0 0 1 1.552734,0.419921 l 4.00586,-6.9394526 A 13,13 0 0 0 16.5,3.0175781 Z m -1,0.00781 A 13,13 0 0 0 9.9433594,4.5078125 L 13.949219,11.447266 A 4.9999997,4.9999997 0 0 1 15.5,11.029297 Z m 7.425781,1.9804688 -4.005859,6.9414071 a 4.9999997,4.9999997 0 0 1 1.132812,1.136718 L 26.986328,9.0800781 A 13,13 0 0 0 22.925781,5.0058594 Z M 9.0800781,5.0136719 A 13,13 0 0 0 5.0039062,9.0742188 l 6.9414058,4.0078122 a 4.9999997,4.9999997 0 0 1 1.136719,-1.134765 z M 4.5078125,9.9414062 A 13,13 0 0 0 3.0175781,15.5 h 8.0078129 a 4.9999997,4.9999997 0 0 1 0.419921,-1.552734 z m 22.9843755,0 -6.939454,4.0078128 A 4.9999997,4.9999997 0 0 1 20.970703,15.5 h 8.003906 A 13,13 0 0 0 27.492188,9.9414062 Z M 3.0253906,16.5 a 13,13 0 0 0 1.4824219,5.558594 L 11.447266,18.050781 A 4.9999997,4.9999997 0 0 1 11.029297,16.5 Z m 17.9492184,0 a 4.9999997,4.9999997 0 0 1 -0.419921,1.550781 l 6.939453,4.00586 A 13,13 0 0 0 28.982422,16.5 Z m -9.027343,2.416016 -6.9335941,4.003906 a 13,13 0 0 0 4.0605469,4.074219 l 4.0058592,-6.941407 a 4.9999997,4.9999997 0 0 1 -1.132812,-1.136718 z m 8.107422,0.002 a 4.9999997,4.9999997 0 0 1 -1.136719,1.132812 l 4.003906,6.935547 a 13,13 0 0 0 4.074219,-4.060547 z m -2.003907,1.634765 A 4.9999997,4.9999997 0 0 1 16.5,20.970703 v 8.003906 a 13,13 0 0 0 5.558594,-1.482421 z m -4.103515,0.002 -4.0058598,6.939453 A 13,13 0 0 0 15.5,28.982422 v -8.007813 a 4.9999997,4.9999997 0 0 1 -1.552734,-0.419921 z"
       transform="matrix(0.26458333,0,0,0.26458333,0,288.53332)"
       id="path917"
       inkscape:connector-curvature="0" />
    <circle
       style="fill:#c4c4c4;fill-opacity:1;stroke-width:0.26458332"
       id="path922"
       cx="4.2333331"
       cy="292.76666"
       r="1.0583333" />
  </g>
</svg>

<!--Created with Inkscape (http://www.inkscape.org/)--><svg xmlns:dc="http://purl.org/dc/elements/1.1/" xmlns:cc="http://creativecommons.org/ns#" xmlns:rdf="http://www.w3.org/1999/02/22-rdf-syntax-ns#" xmlns="http://www.w3.org/2000/svg" xmlns:sodipodi="http://sodipodi.sourceforge.net/DTD/sodipodi-0.dtd" xmlns:inkscape="http://www.inkscape.org/namespaces/inkscape" width="32" height="32" viewBox="0 0 8.4666665 8.4666669" inkscape:version="0.92.4 (5da689c313, 2019-01-14)" sodipodi:docname="digital_dice0.svg"><sodipodi:namedview pagecolor="#ffffff" bordercolor="#666666" borderopacity="1.0" inkscape:pageopacity="0.0" inkscape:pageshadow="2" inkscape:zoom="15.839192" inkscape:cx="11.550286" inkscape:cy="14.3387" inkscape:document-units="px" inkscape:current-layer="layer1" showgrid="true" units="px" inkscape:window-width="1884" inkscape:window-height="1051" inkscape:window-x="0" inkscape:window-y="0" inkscape:window-maximized="1"><inkscape:grid type="xygrid" empspacing="4"/></sodipodi:namedview><metadata><rdf:RDF><cc:Work><dc:format>image/svg+xml</dc:format><dc:type rdf:resource="http://purl.org/dc/dcmitype/StillImage"/><dc:title/><dc:date>2020</dc:date><dc:creator><cc:Agent><dc:title>Timothée Giet</dc:title></cc:Agent></dc:creator><cc:license rdf:resource="http://creativecommons.org/licenses/by-sa/4.0/"/></cc:Work><cc:License rdf:about="http://creativecommons.org/licenses/by-sa/4.0/"><cc:permits rdf:resource="http://creativecommons.org/ns#Reproduction"/><cc:permits rdf:resource="http://creativecommons.org/ns#Distribution"/><cc:requires rdf:resource="http://creativecommons.org/ns#Notice"/><cc:requires rdf:resource="http://creativecommons.org/ns#Attribution"/><cc:permits rdf:resource="http://creativecommons.org/ns#DerivativeWorks"/><cc:requires rdf:resource="http://creativecommons.org/ns#ShareAlike"/></cc:License></rdf:RDF></metadata><g inkscape:label="Calque 1" inkscape:groupmode="layer" transform="translate(0 -288.533)"><rect style="fill:#a2a2a2;fill-opacity:1;stroke-width:.26458332" width="8.4666662" height="8.4666662" y="288.53333" ry="1.0583282"/><rect style="fill:#eae9e9;fill-opacity:1;stroke-width:.24804686" width="7.9374995" height="7.9374995" x="0.26458335" y="288.79791" ry="0.79374075"/><path style="fill:#c4c4c4;fill-opacity:1;stroke-width:.99999994" d="M16.5 3.018v8.007a5 5 0 0 1 1.553.42l4.006-6.94A13 13 0 0 0 16.5 3.019zm-1 .007a13 13 0 0 0-5.557 1.483l4.006 6.94a5 5 0 0 1 1.551-.419zm7.426 1.98-4.006 6.942a5 5 0 0 1 1.133 1.137l6.933-4.004a13 13 0 0 0-4.06-4.074zM9.08 5.015a13 13 0 0 0-4.076 4.06l6.941 4.008a5 5 0 0 1 1.137-1.135zM4.508 9.94a13 13 0 0 0-1.49 5.559h8.007a5 5 0 0 1 .42-1.553zm22.984 0-6.94 4.008a5 5 0 0 1 .419 1.551h8.004a13 13 0 0 0-1.483-5.559zM3.025 16.5a13 13 0 0 0 1.483 5.559l6.94-4.008a5 5 0 0 1-.419-1.551zm17.95 0a5 5 0 0 1-.42 1.55l6.94 4.007a13 13 0 0 0 1.487-5.557zm-9.028 2.416L5.014 22.92a13 13 0 0 0 4.06 4.074l4.006-6.941a5 5 0 0 1-1.133-1.137zm8.108.002a5 5 0 0 1-1.137 1.133l4.004 6.935a13 13 0 0 0 4.074-4.06zm-2.004 1.635a5 5 0 0 1-1.551.418v8.004a13 13 0 0 0 5.559-1.483zm-4.104.002-4.006 6.94a13 13 0 0 0 5.559 1.487v-8.007a5 5 0 0 1-1.553-.42z" transform="matrix(.26458 0 0 .26458 0 288.533)" inkscape:connector-curvature="0"/><circle style="fill:#c4c4c4;fill-opacity:1;stroke-width:.26458332" cx="4.2333331" cy="292.76666" r="1.0583333"/></g></svg>
